X: 1
T: I Was Born For Sport
M: 6/8
L: 1/8
R: jig
K: Gmaj
B|dgg fdd|cAB c2A|dgg fdd|cAF G2B|
dgg fdd|cAB c2B|cde fed|cAF G2:|
B|c2A d2d|dfe dcB|c2A d2B|cAF GAB|
c2A d2d|dfe dcB|cde fed|cAF G2:|
